src/images/fi-social-github.svg

<?xml version="1.0" encoding="UTF-8" standalone="no"?>
<svg width="18px" height="17px" viewBox="0 0 18 17" version="1.1" xmlns="http://www.w3.org/2000/svg" xmlns:xlink="http://www.w3.org/1999/xlink" xmlns:sketch="http://www.bohemiancoding.com/sketch/ns">
    <!-- Generator: Sketch 3.3.2 (12043) - http://www.bohemiancoding.com/sketch -->
    <title>fi-social-github</title>
    <desc>Created with Sketch.</desc>
    <defs></defs>
    <g id="Page-1" stroke="none" stroke-width="1" fill="none" fill-rule="evenodd" sketch:type="MSPage">
        <g id="fi-social-github" sketch:type="MSLayerGroup" fill="#8C9AAA">
            <path d="M8.70284559,0.0523557868 C3.89662,0.0523557868 0,3.94919895 0,8.75609402 C0,12.6013869 2.49315839,15.8635593 5.95193586,17.0137328 C6.38754678,17.094294 6.54599133,16.8262772 6.54599133,16.5948589 C6.54599133,16.3886579 6.53840384,15.8416894 6.5346101,15.1146298 C4.11353282,15.6410674 3.60271653,13.9477192 3.60271653,13.9477192 C3.20682833,12.9423774 2.6362048,12.6750302 2.6362048,12.6750302 C1.84599053,12.1354261 2.6962352,12.1459146 2.6962352,12.1459146 C3.56968865,12.2077303 4.02940099,13.0425769 4.02940099,13.0425769 C4.8055561,14.3726184 6.06664079,13.9876651 6.5622821,13.7662891 C6.64105805,13.2028067 6.866451,12.820085 7.11482956,12.6020564 C5.18247559,12.3824657 3.15081483,11.6357678 3.15081483,8.30084491 C3.15081483,7.3504008 3.4897969,6.57335304 4.04636126,5.96479209 C3.95731988,5.74564767 3.65806054,4.86081299 4.13183205,3.66199032 C4.13183205,3.66199032 4.86246224,3.42811724 6.52546048,4.5548588 C7.21926906,4.36093161 7.96395842,4.26407959 8.70418456,4.26117849 C9.44329489,4.26430275 10.1882074,4.36093161 10.8829086,4.5548588 C12.5447911,3.42811724 13.2743055,3.66199032 13.2743055,3.66199032 C13.7491928,4.86081299 13.4501566,5.74564767 13.3608921,5.96479209 C13.9187954,6.57335304 14.2553227,7.3504008 14.2553227,8.30084491 C14.2553227,11.6435785 12.2207608,12.3800109 10.2819352,12.5946921 C10.5939147,12.8636015 10.8724201,13.3958413 10.8724201,14.2079253 C10.8724201,15.370819 10.8619315,16.3092124 10.8619315,16.5946358 C10.8619315,16.8278394 11.0183676,17.0989804 11.460227,17.012617 C14.9152107,15.8599887 17.4065838,12.6002711 17.4065838,8.75609402 C17.4065838,3.94919895 13.5099638,0.0523557868 8.70284559,0.0523557868 L8.70284559,0.0523557868 Z" id="Shape" sketch:type="MSShapeGroup"></path>
        </g>
    </g>
</svg>

<svg width="18" height="17" viewBox="0 0 18 17" xmlns="http://www.w3.org/2000/svg"><title>fi-social-github</title><path d="M8.703.052a8.703 8.703 0 0 0-2.751 16.962c.436.08.594-.188.594-.42 0-.205-.008-.752-.011-1.48-2.421.527-2.932-1.166-2.932-1.166-.396-1.006-.967-1.273-.967-1.273-.79-.54.06-.53.06-.53.874.063 1.333.898 1.333.898.777 1.33 2.038.945 2.533.723.08-.563.304-.946.553-1.164-1.933-.22-3.964-.966-3.964-4.301 0-.95.339-1.728.895-2.336-.089-.22-.388-1.104.086-2.303 0 0 .73-.234 2.393.893a8.276 8.276 0 0 1 2.18-.294c.738.003 1.483.1 2.178.294 1.662-1.127 2.391-.893 2.391-.893.475 1.199.176 2.084.087 2.303.558.608.894 1.385.894 2.336 0 3.343-2.034 4.079-3.973 4.294.312.269.59.8.59 1.613 0 1.163-.01 2.101-.01 2.387 0 .233.156.504.598.418A8.705 8.705 0 0 0 8.703.053z" fill="#8C9AAA" fill-rule="evenodd"/></svg>
